assets/svg/musescore_studio.svg

<svg width="50" height="50" viewBox="0 0 50 50" fill="none" xmlns="http://www.w3.org/2000/svg">
<g clip-path="url(#clip0_489_7)">
<path d="M25 50C38.8071 50 50 38.8071 50 25C50 11.1929 38.8071 0 25 0C11.1929 0 0 11.1929 0 25C0 38.8071 11.1929 50 25 50Z" fill="url(#paint0_linear_489_7)"/>
<path fill-rule="evenodd" clip-rule="evenodd" d="M36.0107 11.1084C36.7562 11.4465 37.4236 11.9023 38.0127 12.4756C38.3763 12.9207 38.7019 13.3927 38.9893 13.8916C39.1558 14.2456 39.3023 14.6036 39.4287 14.9658C39.5255 15.4167 39.5906 15.8724 39.624 16.333C39.7253 16.8403 39.5952 17.2716 39.2334 17.627C38.673 17.8914 38.2498 17.7531 37.9639 17.2119C37.9308 16.8049 37.89 16.398 37.8418 15.9912C37.822 15.8329 37.7813 15.6864 37.7197 15.5518C37.6389 15.1788 37.4924 14.837 37.2803 14.5264C36.9859 13.9703 36.579 13.5145 36.0596 13.1592C35.2004 12.6079 34.2564 12.3881 33.2275 12.5C31.6517 12.7983 30.5937 13.7017 30.0537 15.21C29.8069 15.8317 29.693 16.4827 29.7119 17.1631C29.4545 17.6885 29.0476 17.8513 28.4912 17.6514C28.2429 17.5146 28.0883 17.303 28.0273 17.0166C27.9955 16.706 28.0036 16.3967 28.0518 16.0889C28.077 15.6693 28.1584 15.2625 28.2959 14.8682C28.4137 14.4823 28.5602 14.1079 28.7353 13.7451C30.4752 11.0128 32.9004 10.1339 36.0107 11.1084Z" fill="#D9D5E5"/>
<path fill-rule="evenodd" clip-rule="evenodd" d="M34.6924 16.626C34.7026 16.6954 34.727 16.7605 34.7656 16.8213C34.8978 17.3704 34.7269 17.7854 34.2529 18.0664C33.5232 18.2877 33.0512 18.0354 32.8369 17.3096C32.8205 16.9598 32.9344 16.6587 33.1787 16.4063C33.7418 16.0632 34.2464 16.1364 34.6924 16.626Z" fill="#D7D4E4"/>
<path d="M25.415 19.9951C26.2338 20.1444 26.9826 20.4537 27.6611 20.9229C28.3061 21.4375 28.827 22.0561 29.2236 22.7783C29.4088 23.1875 29.5553 23.6106 29.6631 24.0479C29.7467 24.3357 29.8118 24.6287 29.8584 24.9268C29.8963 25.3162 29.9126 25.7068 29.9072 26.0986C29.9325 26.6028 29.9488 27.1074 29.9561 27.6123C29.9554 28.2151 29.9717 28.8173 30.0049 29.4189C30.0245 30.0182 30.1222 30.6042 30.2979 31.1768C30.3438 31.2524 30.3763 31.3338 30.3955 31.4209C30.6546 32.1027 31.0778 32.6562 31.665 33.0811C32.7625 33.8942 33.9669 34.0814 35.2783 33.6426C36.5582 33.1521 37.3883 32.2488 37.7686 30.9326C37.9397 30.2107 38.0048 29.4783 37.9639 28.7354V26.5869V24.7803V23.2666V22.0947C37.9558 21.8338 37.9639 21.5734 37.9883 21.3135C38.0157 21.2586 38.0428 21.2044 38.0697 21.1507L38.1104 21.0693C38.357 20.7542 38.6826 20.6402 39.0869 20.7275C39.4334 20.8299 39.6451 21.0578 39.7217 21.4111V22.6318V24.1455V25.9521V28.1006V29.5166C39.6893 29.7594 39.673 30.0036 39.6729 30.249C39.592 30.6705 39.5106 31.0937 39.4287 31.5186C39.2784 31.9499 39.0994 32.3731 38.8916 32.7881C38.7297 33.0785 38.5426 33.3551 38.3301 33.6182C38.0841 33.8559 37.8481 34.1 37.6221 34.3506C36.5624 35.1705 35.358 35.5937 34.0088 35.6201C33.3203 35.6545 32.653 35.5569 32.0068 35.3271C31.5321 35.163 31.0926 34.9352 30.6885 34.6436C30.3484 34.3849 30.0392 34.0919 29.7607 33.7646C29.6137 33.5675 29.4672 33.3722 29.3213 33.1787C29.1117 32.7759 28.9164 32.369 28.7354 31.958C28.7291 31.8742 28.7128 31.7928 28.6865 31.7139C28.4937 31.1752 28.3635 30.6218 28.2959 30.0537C28.2684 29.444 28.2358 28.8417 28.1982 28.2471C28.2143 27.5223 28.198 26.8062 28.1494 26.0986C28.1652 25.7802 28.1489 25.4709 28.1006 25.1709C28.0987 24.9642 28.0662 24.7689 28.0029 24.585C27.944 24.1468 27.7812 23.7562 27.5146 23.4131C26.9817 22.5759 26.2167 22.0795 25.2197 21.9238C23.2457 21.7185 21.9029 22.5404 21.1914 24.3896C21.0717 24.7055 20.9985 25.031 20.9717 25.3662C20.9231 25.9597 20.9068 26.562 20.9229 27.1729V28.1494V29.3701V30.835V32.6904V34.79C20.8065 35.451 20.4159 35.7196 19.751 35.5957C19.5998 35.5335 19.4695 35.444 19.3604 35.3271C19.3041 35.2145 19.2471 35.1006 19.1895 34.9854C19.165 34.4322 19.1569 33.8788 19.165 33.3252V31.4697V30.0049V28.7842V27.8076V26.3916C19.241 25.6003 19.1108 24.8516 18.7744 24.1455C18.5449 23.5586 18.1868 23.0704 17.7002 22.6807C17.2616 22.2758 16.7408 22.0235 16.1377 21.9238C14.0672 21.6724 12.7489 22.5431 12.1826 24.5361C11.9803 25.1819 11.8989 25.8493 11.9385 26.5381V28.9307V30.3467V31.3232V32.5439V34.0576C11.955 34.403 11.9306 34.7448 11.8652 35.083C11.567 35.6218 11.1357 35.7602 10.5713 35.498C10.3161 35.2887 10.1858 35.0202 10.1807 34.6924V33.1787V32.0068V31.0303V29.6143V27.2217C10.1794 26.6026 10.1957 25.9841 10.2295 25.3662C10.2788 24.9565 10.3439 24.5497 10.4248 24.1455C10.6461 23.3776 10.9717 22.6615 11.4014 21.9971C12.7003 20.4949 14.3442 19.8764 16.333 20.1416C17.2209 20.3129 18.051 20.6384 18.8232 21.1182C19.2766 21.4739 19.6835 21.8808 20.0439 22.3389C21.3978 20.5718 23.1881 19.7905 25.415 19.9951Z" fill="#D9D5E5"/>
</g>
<defs>
<linearGradient id="paint0_linear_489_7" x1="13.5498" y1="2.7832" x2="36.6699" y2="47.168" gradientUnits="userSpaceOnUse">
<stop stop-color="#5328E1"/>
<stop offset="1" stop-color="#0F023A"/>
</linearGradient>
<clipPath id="clip0_489_7">
<rect width="50" height="50" fill="white"/>
</clipPath>
</defs>
</svg>

<svg xmlns="http://www.w3.org/2000/svg" width="50" height="50" fill="none" viewBox="0 0 50 50"><g clip-path="url(#a)"><path fill="url(#b)" d="M25 50c13.807 0 25-11.193 25-25S38.807 0 25 0 0 11.193 0 25s11.193 25 25 25"/><path fill="#d9d5e5" fill-rule="evenodd" d="M36.01 11.108a7 7 0 0 1 2.003 1.368q.545.668.976 1.416.25.531.44 1.074.145.675.195 1.367.151.761-.39 1.294-.841.396-1.27-.415a33 33 0 0 0-.122-1.22 1.5 1.5 0 0 0-.122-.44 2.9 2.9 0 0 0-.44-1.026 3.8 3.8 0 0 0-1.22-1.367 4.25 4.25 0 0 0-2.833-.659q-2.363.447-3.173 2.71a4.9 4.9 0 0 0-.342 1.953q-.387.788-1.22.488a.9.9 0 0 1-.465-.634q-.047-.466.025-.928a4.5 4.5 0 0 1 .244-1.22 8 8 0 0 1 .44-1.124q2.61-4.098 7.275-2.637" clip-rule="evenodd"/><path fill="#d7d4e4" fill-rule="evenodd" d="M34.692 16.626q.015.104.074.195.197.824-.513 1.245-1.095.333-1.416-.756a1.17 1.17 0 0 1 .342-.904q.844-.515 1.513.22" clip-rule="evenodd"/><path fill="#d9d5e5" d="M25.415 19.995q1.229.225 2.246.928a6.1 6.1 0 0 1 1.563 1.855q.277.615.44 1.27.125.431.194.879.057.585.05 1.172.036.756.048 1.513 0 .904.049 1.807.03.9.293 1.758a.8.8 0 0 1 .098.244q.389 1.023 1.269 1.66 1.647 1.22 3.613.562 1.92-.736 2.49-2.71a7.7 7.7 0 0 0 .196-2.198v-6.64q-.012-.392.024-.781l.082-.163.04-.082q.37-.473.977-.341.52.153.635.683v8.106a6 6 0 0 0-.05.732l-.243 1.27q-.226.645-.537 1.27-.243.434-.562.83a15 15 0 0 0-.708.732 5.95 5.95 0 0 1-3.613 1.27 5.2 5.2 0 0 1-2.002-.294 5 5 0 0 1-1.318-.683 6 6 0 0 1-.928-.88l-.44-.585a21 21 0 0 1-.586-1.221 1 1 0 0 0-.049-.244 7.6 7.6 0 0 1-.39-1.66q-.041-.915-.098-1.807.024-1.087-.049-2.148.024-.478-.048-.928a1.8 1.8 0 0 0-.098-.586 2.4 2.4 0 0 0-.488-1.172q-.8-1.256-2.295-1.49-2.961-.307-4.029 2.467-.179.474-.22.976a17 17 0 0 0-.048 1.807v7.617q-.174.992-1.172.806a1.1 1.1 0 0 1-.39-.269l-.172-.342a28 28 0 0 1-.024-1.66v-6.933a4.2 4.2 0 0 0-.39-2.247 3.46 3.46 0 0 0-1.075-1.464 2.97 2.97 0 0 0-1.562-.757q-3.106-.377-3.955 2.612a5.6 5.6 0 0 0-.245 2.002v7.52a4.3 4.3 0 0 1-.073 1.025q-.447.808-1.294.415a1.02 1.02 0 0 1-.39-.806v-7.47q-.003-.93.049-1.856.073-.614.195-1.22a8 8 0 0 1 .976-2.149q1.95-2.253 4.932-1.855a7.3 7.3 0 0 1 2.49.976q.68.534 1.22 1.22 2.032-2.649 5.372-2.343"/></g><defs><linearGradient id="b" x1="13.55" x2="36.67" y1="2.783" y2="47.168" gradientUnits="userSpaceOnUse"><stop stop-color="#5328e1"/><stop offset="1" stop-color="#0f023a"/></linearGradient><clipPath id="a"><path fill="#fff" d="M0 0h50v50H0z"/></clipPath></defs></svg>
